X: 3624
T: Bill Malley's
R: barndance
M: 4/4
K: Gmajor
|:GFGA B2 GB|dedB G2 d2|B2 G2 d2 G2|B2 AG A2 dB|
GFGA B2 GB|dedB G2 A/B/c|B2 AG E2 D/E/F|1 G4 G2 D2:|2 G4 G2 g2||
|:e2 d2 g3 e|dedB G2 g2|e2 de dBGA|B2 A2A2g2|
e2 d2 g3 e|dedB G2 A/B/c|B2 AG E2 D/E/F|1 G4 G2 g2:|2 G4 G4||

